!!!COM: Music21
!!!OTL: Pasacorredoiras de Ponteareas
!!!OMV: pezas_pasacorredoiras_pasacorredoiras-de-ponteareas_pasacorredoiras-de-ponteareas-partitura.musicxml
**kern
*I"Bagpipes
*I'Bag
*clefG^2
*k[]
*M2/4
=1
!LO:TX:a:t=Andante
*MM96
!LO:TX:a:t=[quarter]=96
8.cccL
16bbJk
16aaLL
16gg
16aa
16bbJJ
=
8.ggL
16eeJk
8ccL
8ddJ
=
8eeL
16ddL
16eeJJ
16ggLL
16ee
16ff
16ddJJ
=
16eeLL
16ff
16dd
16eeJJ
4cc
=
8.cccL
16bbJk
16aaLL
16gg
16aa
16bbJJ
=
8.ggL
16eeJk
8ccL
8ddJ
!!linebreak:original
=
8eeL
16ddL
16eeJJ
16ggLL
16ee
16ff
16ddJJ
=
2cc
=||
*M2/4
!LO:TX:a:t=Andante
*MM96
!LO:TX:a:t=[quarter]=96
8.cccL
16bbJk
16aaLL
16gg
16aa
16bbJJ
=
8.ggL
16eeJk
8ccL
8ddJ
=
8eeL
16ddL
16eeJJ
16ggLL
16ee
16ff
16ddJJ
=
16eeLL
16ff
16dd
16eeJJ
4cc
=
8.cccL
16bbJk
16aaLL
16gg
16aa
16bbJJ
!!linebreak:original
=
8.ggL
16eeJk
8ccL
8ddJ
!!linebreak:original
=
8eeL
16ddL
16eeJJ
16ggLL
16ee
16ff
16ddJJ
=
2cc
=||
8.ddTL
16ccJk
16ddLL
16cc
16dd
16ffJJ
=
8.eetL
16ccJk
16eeLL
16cc
16ee
16ggJJ
=
16ffLL
16gg
16ff
16eeJJ
16ffLL
16dd
16gg
16ffJJ
=
16eeLL
16ff
16dd
16eeJJ
4cc
!!linebreak:original
=
8.ddTL
16ccJk
16ddLL
16cc
16dd
16ffJJ
=
8.eetL
16ccJk
16eeLL
16cc
16ee
16ggJJ
=
16ffLL
16gg
16ff
16eeJJ
16ffLL
16dd
16b
16ddJJ
=
2cc
=||
8.ddTL
16ccJk
16ddLL
16cc
16dd
16ffJJ
=
8.eetL
16ccJk
16eeLL
16cc
16ee
16ggJJ
!!linebreak:original
=
16ffLL
16gg
16ff
16eeJJ
16ffLL
16dd
16gg
16ffJJ
=
16eeLL
16ff
16dd
16eeJJ
4cc
!!linebreak:original
=
8.ddTL
16ccJk
16ddLL
16cc
16dd
16ffJJ
=
8.eetL
16ccJk
16eeLL
16cc
16ee
16ggJJ
=
16ffLL
16gg
16ff
16eeJJ
16ffLL
16dd
16b
16ddJJ
=
2cc
=||
*-
